X: 1
T: the Trippers
R: jig
Z: 2006 John Chambers <jc:trillian.mit.edu>
B: James Kerr "Merry Melodies" v.4 p.27 #245
B: Pinewoods Alternates
B: Kerr's
M: 6/8
L: 1/8
K: Amix
|: "A"ABd e2A | "D"f2A "A"e2A | "A"ABd e2A | "G"gfe dBG \
|  "A"ABd e2A | "D"f2A e2A | "G"gag gfe | dBg dBG :|
|: "G"gag f2e | "Em"efg "A"a3 | "G"gag gfe | dBg dBG \
|  "G"gag gfe | "Em"efg "A"a3 | "G"gag gfe | dBg dB2 :|
